X:704
T:Glen Ogle #2
C:Joe Buchanan's Scottish Tome - Page 225.2
I:225 2
Z:Carl Allison
R:Reel
L:1/8
M:4/4
K:D
A | "D"d2 (fd) "G"B2 ed | "A7"cABc "D"dAFD | "D"d2 (fd) "G"B2 (ed) | "A7"cABc "D"d2 d :|
e | "D"f2 (df) "G"gfed | "A7"cABc "D"dAFD | "D"f2 (df) "Em"gfed | "A7"cABc "D"d2 (de) |
"D"f2 (df) "G"gfed | "A7"cABc "D"dAFD | "D"dfdf "A7"cecA | "G"Bg"A7"ec "D"d2 |]
